X:4549
T:Duncan Grey
S:Charlie Menzies
R:Reel
O:Scotland
M:2/4
L:1/8
K:D
Ad cd| efc2| d2e>g|fd d2|\
Ad cd|ef c2|d2 e>g|fd d2:|*
|:fa ag/2f/2|gg g2| gf ed | cB A2|\
af ge| fd e2| d2 e>g| fd d2:|**
